X:152
T: DER FRUEHLING KEHRET WIEDER
N: F0283
O: Europa, Mitteleuropa, Deutschland
R: Jugend - Lied, Trauer, Toten - Klage
M: 2/4
L: 1/16
K: A
E2 | =C3CB,2=F2 | A,2G2z2
B,2 | =C2A,2B,3B, | A,2z4
E2 | =F3D=C2B,2 | E2A,2z2
D2 | G2A,2B,3B, | A,4z2

@@@ Tune index: 5583
